icons/fill-new-office-book-notebook-1.svg

<svg xmlns="http://www.w3.org/2000/svg" width="32px" height="32px" viewBox="0 0 32 32" version="1.1">
    <title>fill-new-office-book-notebook-1</title>
    <g id="fill-new-office-book-notebook-1" stroke-width="1" fill-rule="evenodd">
        <path d="M21,2 L21,30 L6,30 C5.44771525,30 5,29.5522847 5,29 L5,26 L3,26 C2.44771525,26 2,25.5522847 2,25 C2,24.4477153 2.44771525,24 3,24 L5,24 L5,20 L3,20 C2.44771525,20 2,19.5522847 2,19 C2,18.4477153 2.44771525,18 3,18 L5,18 L5,14 L3,14 C2.44771525,14 2,13.5522847 2,13 C2,12.4477153 2.44771525,12 3,12 L5,12 L5,8 L3,8 C2.44771525,8 2,7.55228475 2,7 C2,6.44771525 2.44771525,6 3,6 L5,6 L5,3 C5,2.44771525 5.44771525,2 6,2 L21,2 Z M27,2 C27.5522847,2 28,2.44771525 28,3 L28,29 C28,29.5522847 27.5522847,30 27,30 L23,30 L23,2 L27,2 Z" id="&#24418;&#29366;" />
    </g>
</svg>

<svg xmlns="http://www.w3.org/2000/svg" viewBox="0 0 32 32"><path fill="currentColor" d="M21 2v28H6a1 1 0 0 1-1-1v-3H3a1 1 0 0 1 0-2h2v-4H3a1 1 0 0 1 0-2h2v-4H3a1 1 0 0 1 0-2h2V8H3a1 1 0 1 1 0-2h2V3a1 1 0 0 1 1-1zm6 0a1 1 0 0 1 1 1v26a1 1 0 0 1-1 1h-4V2z"/></svg>
